X:189
T: hong xiu xie
N: C1681
O: China,Jiangxi, ganzhou
S: IV, 240]
R: Wuge, Dengge]
M: 2/4
L: 1/16
K: C
d2d4e2 | dcAcG3A | c3edcA2 | G8 |
G2G4c2 | A3cD3E | G2AcAGEG | D8 |
e3gedc2 | d8 | c2AcdcA2 | G8 |
G2G4c2 | A2c2D3E | G2EGAGEG | D8 |
E2EGD2DE | G6A2 | c3edcA2 | G8 |
G2G4c2 | A3cD2E2 | d2egedc2 | d8

@@@ Tune index: 6744
